X:1
T:Title
%%score ( 1 2 3 ) { 4 | 5 }
L:1/8
Q:1/4=83
M:4/4
K:E
V:1 treble nm="Grand Piano, Soprano"
V:2 treble 
V:3 treble 
V:4 bass nm="Choir Pad, Joy and Consolation"
V:5 bass 
V:1
 [EG][EF][B,E][B,E] [CE][DF][EG]E | [Ec][EB][Ec][EB] [EG]E[B,F][B,E] | %2
w: By~Arthur~Decatur~Henry,~1913 * * * * * * *||
 [Ec][EB][EG]G- [EG-][EG-] [E-G]/E/[EG] | F[EG]B-[DB-] [DB-][DB-] [EB]2 | %4
w: ||
 [EG][EF][B,E][B,E] [CE][DF][EG]E | [Ec][EB][Ec][FB] (3[FA][EG]E [B,F][B,E] | %6
w: ||
 [Ec][EB][EG][EG] G-[EG-][EG-][EG] | [DF][DF]ED CC B,2 | [Ge][Ge][Ge][GB] [Ac][GB][EG][E=G] | %9
w: |||
 [EG][E=G][E^G][GB] B-[FB-][GB-][GB] | [Ge][Ge][Ge][GB] [Ac][GB][EG][DF] | z2 F6 | %12
w: |||
 [EG][EF][B,E][B,E] [CE][DF][EG]E | [Ec][EB][Ec][FB] (3[FA][EG]E [B,F][B,E] | z4 G4 | %15
w: |||
 [DF][DF]ED CC B,2 |] %16
w: |
V:2
 x8 | x8 | z2 z E z4 | z2 .D2 z4 | x8 | x8 | z4 .E2 z2 | x8 | x8 | z4 .F2 z2 | x8 | %11
 (3E[DF][EG] z D (3CCC D2 | x8 | x8 | [Ec][EB][EG][EG] EEEE | x8 |] %16
V:3
 x8 | x8 | x8 | x8 | x8 | x8 | x8 | x8 | x8 | x8 | x8 | z2 .D2 z4 | x8 | x8 | x8 | x8 |] %16
V:4
 B,A,G,G, G,B,B,G, | G,G,G,G, B,G,A,G, | G,G,B,B, B,B,B,B, | B,B,B,F, F,A, G,2 | %4
 B,A,G,G, G,B,B,G, | G,G,G,G, (3B,A,G, A,G, | G,G,B,B, CCB,B, | B,A,G,B, A,A, G,2 | %8
 B,B,B,[K:treble]E EEB,^A, | B,^A,B,E D[K:treble]DEE | B,B,B,E EE[K:bass]B,B, | %11
 (3B,B,B, B,B, (3^A,A,A, B,2 | B,A,G,G, G,B,B,G, | G,G,G,G, (3B,A,G, A,G, | G,G,B,B, CCB,B, | %15
 B,A,G,B, A,A, G,2 |] %16
V:5
 E,E,E,E, C,C,E,E, | E,E,E,E, E,E,E,E, | E,E,E,E, .G,2 F,F, | E,F,B,,B,, B,,B,, E,2 | %4
 E,E,E,E, C,B,,E,E, | E,E,E,E, (3E,E,E, E,E, | E,E,E,E, C,C,G,,G,, | B,,B,, E,6 | %8
 E,E,E,E, E,E,E,E, | E,E,E,E, B,,B,,E,E, | E,E,E,E, E,E,E,F, | (3G,F,E, B,,B,, (3F,F,F, B,,2 | %12
 E,E,E,E, C,B,,E,E, | E,E,E,E, (3E,E,E, E,E, | E,E,E,E, C,C,G,,G,, | B,,B,, E,6 |] %16

